X:48
T:Waterloo. RHu.048
S:R.Hughes MS,1823,Whitchurch,Shrops.
A:Whitchurch, Shropshire
Z:Neil Brookes 2006
M:2/4
L:1/8
Q:1/2=70
R:Country Dance
K:G
d|dggB|BddG|Gedc|Bcdd|dggB|BddG|GedF|G3″cr in MS”::!
d|dffd|dggd|daad|dbbd|dggB|BddG|GedF|G3::!
d|d/^c/d/e/ d/e/f/g/|”should perhaps be a/g/f/e/”a/g/g/f/ dd|\
d/c/B/c/ AA|d/c/B/c/AA|!
d/^c/d/e/ d/e/f/g/|a/g/f/e/ dd|dba^c|d3:|

